X:156
T:Reel of Mullinavat, The
R:reel
D:Mary Bergin: Feadoga Stain
D:Matt Molloy: Stony Steps
Z:id:hn-reel-156
M:C|
K:Edor
g2fg edBA|GABG E2DE|GE~E2 GA (3Bcd|eBBA (3Bcd ef|
g2fg edBA|GBAG E2DE|GE~E2 ~G3A|Beed e2ef:|
|:geBe gabg|afdf afdf|geBe gabg|afdf ~e3f|
geBe gabg|afde fa~a2|bfaf gfed|Bgfg e2ef:|
